src/lib/packages/icons/src/assets/line/hotdog.svg

<svg width="24" height="24" viewBox="0 0 24 24" fill="none" xmlns="http://www.w3.org/2000/svg">
<path d="M8.14 16.73C7.75 16.8 7.52 16.84 7.19 17.17C7.04 17.32 6.85 17.39 6.66 17.39C6.47 17.39 6.28 17.32 6.13 17.17C5.84 16.88 5.84 16.4 6.13 16.11C6.8 15.44 7.43 15.33 7.89 15.25C8.28 15.18 8.51 15.14 8.84 14.81C9.17 14.48 9.21 14.25 9.28 13.86C9.36 13.4 9.47 12.77 10.14 12.1C10.81 11.43 11.44 11.32 11.9 11.25C12.29 11.18 12.52 11.14 12.85 10.81C13.18 10.48 13.22 10.25 13.29 9.85996C13.37 9.39996 13.48 8.76997 14.14 8.09997C14.8 7.42997 15.44 7.31996 15.9 7.24996C16.28 7.17996 16.52 7.13996 16.85 6.80996C17.14 6.51996 17.62 6.51996 17.91 6.80996C18.2 7.09996 18.2 7.57996 17.91 7.86996C17.24 8.53996 16.61 8.64996 16.15 8.71996C15.77 8.78996 15.53 8.82997 15.2 9.15997C14.87 9.48997 14.83 9.71996 14.76 10.11C14.68 10.57 14.57 11.2 13.91 11.87C13.24 12.54 12.61 12.64 12.15 12.72C11.77 12.79 11.53 12.83 11.2 13.16C10.87 13.49 10.83 13.72 10.76 14.11C10.68 14.57 10.57 15.2 9.89999 15.87C9.22999 16.54 8.6 16.65 8.14 16.73ZM20.94 9.12997C21.99 10.19 21.99 11.91 20.94 12.96L12.94 20.96C12.43 21.47 11.74 21.76 11.02 21.76C10.29 21.76 9.62 21.47 9.11 20.96L8.86 20.71C8.13 21.37 7.21 21.74 6.22 21.74C5.17 21.74 4.17999 21.33 3.42999 20.58C1.92999 19.08 1.9 16.69 3.3 15.14L3.05 14.89C2.54 14.39 2.26 13.71 2.25 12.98C2.25 12.25 2.53 11.56 3.05 11.05L11.04 3.05996C12.1 2.00996 13.82 2.00996 14.87 3.05996L15.12 3.30996C16.62 1.92996 19.13 1.94997 20.58 3.40997C22.08 4.91997 22.1 7.32997 20.68 8.87997L20.93 9.12997H20.94ZM3.75 12.98C3.75 13.3 3.88001 13.6 4.10001 13.83L4.34 14.07L14.05 4.35996L13.81 4.11996C13.34 3.65996 12.57 3.64996 12.09 4.11996L4.10001 12.11C3.87001 12.34 3.74001 12.65 3.74001 12.98H3.75ZM7.95 19.52L8.34 19.13L19.1 8.36996L19.51 7.95997C20.46 7.00997 20.46 5.45996 19.51 4.50996C19.03 4.02996 18.42 3.77996 17.77 3.77996C17.12 3.77996 16.5 4.02996 16.04 4.49996L15.62 4.91996L4.86 15.67C4.86 15.67 4.86 15.67 4.86 15.68C4.86 15.68 4.86001 15.68 4.85001 15.68L4.47 16.06C3.52 17.01 3.52 18.56 4.47 19.52C5.41 20.46 7.01 20.45 7.94 19.52H7.95ZM19.87 10.18L19.64 9.94996L9.92999 19.66L10.17 19.9C10.4 20.13 10.7 20.26 11.02 20.26C11.35 20.26 11.65 20.13 11.88 19.9L19.87 11.91C20.34 11.44 20.34 10.67 19.87 10.19V10.18Z" fill="currentColor"/>
</svg>

<svg xmlns="http://www.w3.org/2000/svg" width="24" height="24" fill="none"><path fill="currentColor" d="M8.14 16.73c-.39.07-.62.11-.95.44-.15.15-.34.22-.53.22s-.38-.07-.53-.22a.754.754 0 0 1 0-1.06c.67-.67 1.3-.78 1.76-.86.39-.07.62-.11.95-.44.33-.33.37-.56.44-.95.08-.46.19-1.09.86-1.76.67-.67 1.3-.78 1.76-.85.39-.07.62-.11.95-.44.33-.33.37-.56.44-.95.08-.46.19-1.09.85-1.76.66-.67 1.3-.78 1.76-.85.38-.07.62-.11.95-.44.29-.29.77-.29 1.06 0 .29.29.29.77 0 1.06-.67.67-1.3.78-1.76.85-.38.07-.62.11-.95.44-.33.33-.37.56-.44.95-.08.46-.19 1.09-.85 1.76-.67.67-1.3.77-1.76.85-.38.07-.62.11-.95.44-.33.33-.37.56-.44.95-.08.46-.19 1.09-.86 1.76-.67.67-1.3.78-1.76.86Zm12.8-7.6a2.722 2.722 0 0 1 0 3.83l-8 8c-.51.51-1.2.8-1.92.8-.73 0-1.4-.29-1.91-.8l-.25-.25a3.92 3.92 0 0 1-5.43-.13 3.947 3.947 0 0 1-.13-5.44l-.25-.25c-.51-.5-.79-1.18-.8-1.91 0-.73.28-1.42.8-1.93l7.99-7.99a2.722 2.722 0 0 1 3.83 0l.25.25c1.5-1.38 4.01-1.36 5.46.1 1.5 1.51 1.52 3.92.1 5.47l.25.25h.01ZM3.75 12.98c0 .32.13.62.35.85l.24.24 9.71-9.71-.24-.24c-.47-.46-1.24-.47-1.72 0L4.1 12.11c-.23.23-.36.54-.36.87h.01Zm4.2 6.54.39-.39L19.1 8.37l.41-.41c.95-.95.95-2.5 0-3.45a2.43 2.43 0 0 0-1.74-.73c-.65 0-1.27.25-1.73.72l-.42.42L4.86 15.67v.01h-.01l-.38.38c-.95.95-.95 2.5 0 3.46.94.94 2.54.93 3.47 0h.01Zm11.92-9.34-.23-.23-9.71 9.71.24.24a1.197 1.197 0 0 0 1.71 0l7.99-7.99c.47-.47.47-1.24 0-1.72v-.01Z"/></svg>
